X:64
T: Der verlorene Rosenkranz
N: A0066B
O: Europa, Mitteleuropa, Deutschland
N: Juengere Melodie, zusammengesetzt von M. Franck aus 4 einzelnen
N: Stellen im 7. Quodlibet des Fasciculus quodl. 1611.
R: Romanze, Ballade, Lied
M: 4/4
L: 1/8
K: F
F2 | A2A2B2B2 | c2c2c2
c2 | B2A2B2c2 | B2G2F2
c2 | A2A2G2G2 | FFF2C2
A2 | A2F2A3B | c4B2A2 | G4F4 | z6

@@@ Tune index: 64
